X: 9
T:Birthday of the Little Doctor,The. Car.09
T:
M:6/8
L:1/8
Q:120
S:CarlisleMS,Anon.c1812.AGG's transcription
R:Jig
O:England
A:Carlisle
Z:vmp.Chris Partington
K:Eb
B/A/|GBe GBe|c3 f2e|dcB Bcd|e3 g2B/A/|!
GBe GBe|c3 f2e|dcB Bcd|e2z z2||!
b/a/|g2b f2b|e2b d2b|ggb ffb|{b}aga b2b|!
e2e e2e|a2a g2g|f>ef d>cd|e2z z2|]
